X: 28
T: Mazurka in B Major, Op. 41, No. 3
C: Frederic Chopin
%%abc-version 2.0
%%abcx-abcm2ps-target-version 5.9.1 (29 Sep 2008)
%%abc-creator hum2abc beta
%%abcx-conversion-date 2021/01/17 12:55:01
%%abc-edited-by Craig Stuart Sapp
%%abcx-initial-encoding-date 2005/03/20/
%%gracespace 0 6 6
%%humdrum-veritas 4006093964
%%humdrum-veritas-data 2761443754
%%linebreak <none>
%%barnumbers 0
L: 1/8
M: 3/4
N: Derived from mazurka41-3.krn
Q: "Animato" 1/4=132
%%staves {1 2}
V: 1 clef=treble
V: 2 clef=bass
K: B
[V:1] [CE][B,D]!accent![B,4D4] | 
[V:2] F,2!accent!F,4 & [B,,,2B,,2]!accent![B,,,4B,,4] | 
[V:1] [CE][B,D]!accent![B,4D4] | 
[V:2] F,2!accent!F,4 & [B,,,2B,,2]!accent![B,,,4B,,4] | 
[V:1] [CE][B,D]!accent![B,4D4] | 
[V:2] F,2!accent!F,4 & [B,,,2B,,2]!accent![B,,,4B,,4] | 
[V:1] [CE][B,D]!accent![B,4D4]- | 
[V:2] F,2!accent!F,4- & [B,,,2B,,2]!accent![B,,,4B,,4-] | 
[V:1] [B,2D2]CB,EF | 
[V:2] F,2z2z2 & [B,,,2B,,2]C,B,,E,F, | 
[V:1] GDEGBc | 
[V:2] G,D,E,G,B,C | 
[V:1] .dz/A/ (3BcB AG | 
[V:2] D zC,2[^E,2B,2] | 
[V:1] FCDEGF | 
[V:2] F,,2[=E,2A,2][E,2A,2] | 
[V:1] [CE][B,D]!accent![B,4D4] | 
[V:2] F,2!accent!F,4 & [B,,,2B,,2]!accent![B,,,4B,,4] | 
[V:1] [CE][B,D]!accent![B,4D4] | 
[V:2] F,2!accent!F,4 & [B,,,2B,,2]!accent![B,,,4B,,4] | 
[V:1] [CE][B,D]!accent![B,4D4] | 
[V:2] F,2!accent!F,4 & [B,,,2B,,2]!accent![B,,,4B,,4] | 
[V:1] [CE][B,D][B,4D4]- | 
[V:2] F,2!accent!F,4- & [B,,,2B,,2]!accent![B,,,4B,,4-] | 
[V:1] [B,2D2]CB,EF | 
[V:2] F,2z2z2 & [B,,,2B,,2]C,B,,E,F, | 
[V:1] GDEGBc | 
[V:2] G,D,E,G,B,C | 
[V:1] .d z/ =A/ (3_B=cB _A=G | 
[V:2] D z_B,,2[=G,2_E2] | 
[V:1] _A=E=FA=c_B | 
[V:2] _B,,2[_A,2=D2][A,2D2] | 
[V:1] G2(3_B=cB _AG | 
[V:2] _E,2[=G,2_E2][G,2E2] | 
[V:1] _A=E=FA=c_B | 
[V:2] _B,,2[_A,2=D2][A,2D2] | 
[V:1] =G2(3_B=cB _AG | 
[V:2] _E,2[=G,2_E2]z2 | 
[V:1] FCD=EGF | 
[V:2] F,,2[=E,2A,2][E,2A,2] | 
[V:1] [CE][B,D]!accent![B,4D4] | 
[V:2] F,2!accent!F,4 & [B,,,2B,,2]!accent![B,,,4B,,4] | 
[V:1] [CE][B,D]!accent![B,4D4] | 
[V:2] F,2!accent!F,4 & [B,,,2B,,2]!accent![B,,,4B,,4] | 
[V:1] [CE][B,D]!accent![B,4D4] | 
[V:2] F,2!accent!F,4 & [B,,,2B,,2]!accent![B,,,4B,,4] | 
[V:1] [CE][B,D]!accent![B,4D4]- | 
[V:2] F,2!accent!F,4- & [B,,,2B,,2]!accent![B,,,4B,,4-] | 
[V:1] [B,2D2]CB,EF | 
[V:2] F,2z2z2 & [B,,,2B,,2]C,B,,E,F, | 
[V:1] GDEGBc | 
[V:2] G,D,E,G,B,C | 
[V:1] dz/A/ (3BcB AG | 
[V:2] D zC,2[^E,2B,2] | 
[V:1] FCDEGF | 
[V:2] F,,2[=E,2A,2][E,2A,2] | 
[V:1] [CE][B,D][B,4D4] | 
[V:2] F,2F,4 & [B,,,2B,,2][B,,,4B,,4] | 
[V:1] [CE][B,D][B,4D4] | 
[V:2] F,2F,4 & [B,,,2B,,2][B,,,4B,,4] | 
[V:1] [CE][B,D][B,4D4] | 
[V:2] F,2F,4 & [B,,,2B,,2][B,,,4B,,4] | 
[V:1] [CE][B,D][B,4D4]- | 
[V:2] F,2F,4- & [B,,,2B,,2][B,,,4B,,4]- | 
[V:1] [B,2D2]CB,EF | 
[V:2] F,2z2z2 & [B,,,2B,,2]C,B,,E,F, | 
[V:1] GDEGBc | 
[V:2] G,D,E,G,B,C | 
[V:1] =d z/ G/ (3=ABA =GF | 
[V:2] =D z=A,,2[F,2=D2] | 
[V:1] =GDEGB=A | 
[V:2] =A,,2[=G,2C2][G,2C2] | 
[V:1] .F2(3=ABA =GF | 
[V:2] =D,2[F,2=A,2=D2][F,2A,2D2] | 
[V:1] =GDEGB=A | 
[V:2] =A,,2[=G,2C2][G,2C2] | 
[V:1] !accent!=D6 | 
[V:2] =D,,2[=D,2F,2=C2][D,2=G,2B,2] | 
[V:1] !accent!=D6 | 
[V:2] =D,,2[=C,2=D,2=A,2][B,,2D,2=G,2] | 
[V:1] (3.[=C=D].[B,D].[=A,D].[C2D2]!accent![B,2D2] | 
[V:2] =D,,2[=D,2F,2][D,2=G,2] | 
[V:1] z6 | 
[V:2] (3.[=A,=D].[=G,D].[F,D][A,2D2]!accent![G,2D2] & .=D,,2.[=C,2=D,2]!accent![B,,2D,2] | 
[V:1] !accent![=D6=d6] | 
[V:2] [=D,,2=D,2][K:clef=treble][=A,2=C2F2][B,2=D2=G2][K:clef=bass] | 
[V:1] !accent![=D6=d6] | 
[V:2] [=D,,2=D,2][K:clef=treble][B,2=F2G2][=C2^F2=A2][K:clef=bass] | 
[V:1] (3.[=D=c=d].[DBd].[D=Ad]!wedge![D2c2d2]!accent![D2B2d2] | 
[V:2] [=D,,2=D,2][D,2F,2=C2][D,2=G,2B,2] | 
[V:1] (3[=D=A=d][D=Gd].[DFd]!wedge![D2A2d2][G2=g2] | 
[V:2] [=D,,2=D,2][D,2F,2=C2][=G,,2D,2B,2] | 
[V:1] !accent![B6b6] | 
[V:2] [B,,,2B,,2][F,2B,2D2][=G,2B,2E2] | 
[V:1] (3.[B=ab].[B=gb].[Bfb]!wedge![B2a2b2]!accent![B2g2b2] | 
[V:2] [B,,,2B,,2][K:clef=treble][B,2D2=A2][B,2E2=G2][K:clef=bass] | 
[V:1] (3.[Bfb].[Beb].[Bdb]!wedge![B2f2b2][e2e'2] | 
[V:2] [B,,2B,2][K:clef=treble][B,2D2=A2][K:clef=bass][E,2B,2=G2] | 
[V:1] (3.[B,FB].[B,EB].[B,DB]!wedge![B,2F2B2][E2e2] | 
[V:2] (3[B,,=A,][B,,A,][B,,A,][B,,2A,2][E,,2B,,2=G,2] | 
[V:1] !accent![F6f6] | 
[V:2] [F,,,2F,,2][F,2C2E2][B,,2F,2=D2] | 
[V:1] (3.[Fef].[F=df].[Fcf].[F2e2f2]!accent![F2d2f2] | 
[V:2] [F,,,2F,,2].[C,2A,2]!accent![=D,2B,2] | 
[V:1] (3.[Fcf].[FBf].[FAf][F2c2f2]!accent![B2b2] | 
[V:2] [F,,,2F,,2][F,2A,2E2]!accent![B,,2F,2=D2][K:clef=treble] | 
[V:1] [b2b'2][b2b'2].[B2b2] | 
[V:2] [B,2B2]!accent![B,2B2][K:clef=bass].[B,,2B,2] | 
[V:1] B6 & .B,2CB,EF | 
[V:2] .B,,2C,B,,E,F, & B,,,4z2 | 
[V:1] B6 & GDEGBc | 
[V:2] G,D,E,G,B,C | 
[V:1] !wedge!d z/ A/ (3BcB AG | 
[V:2] !wedge!D z[C,,2C,2][^E,2B,2] | 
[V:1] FCDEGF | 
[V:2] F,,2[=E,2A,2][E,2A,2] | 
[V:1] !accent!B6- & .B,2CB,EF | 
[V:2] B,,2C,B,,E,F, & B,,,4z2 | 
[V:1] B6 & GDEGBc | 
[V:2] G,D,E,G,B,C | 
[V:1] !wedge!d z/ =A/ (3_B=cB _A=G | 
[V:2] !wedge!D z_B,,2[=G,2_E2] | 
[V:1] _A=E=FA=c_B | 
[V:2] _B,,2[_A,2=D2][A,2D2] | 
[V:1] .=G2(3_B=cB _AG | 
[V:2] _E,2[=G,2_E2][G,2E2] | 
[V:1] _A=E=FA=c_B | 
[V:2] _B,,2[_A,2=D2][A,2D2] | 
[V:1] .=G2(3_B=cB _AG | 
[V:2] _E,2[=G,2_E2]z2 | 
[V:1] FCD=EGF | 
[V:2] F,,2[=E,2A,2][E,2A,2] | 
[V:1] !accent!B6- & B,2CB,EF | 
[V:2] .B,,2C,B,,E,F, & B,,,4z2 | 
[V:1] B6 & GDEGBc | 
[V:2] G,D,E,G,B,C | 
[V:1] .d z/ A/ (3BcB AG | 
[V:2] .D zC,2[^E,2B,2] | 
[V:1] FCDEGF | 
[V:2] F,,2[=E,2A,2][E,2A,2] | 
[V:1] B6- & .B,2CB,EF | 
[V:2] .B,,2C,B,,E,F, & B,,,4z2 | 
[V:1] B6 & =GDEGBc | 
[V:2] =G,D,E,G,B,C | 
[V:1] dABdef | 
[V:2] DA,B,DEF[K:clef=treble] | 
[V:1] =gdegbc' | 
[V:2] =GDEGBc | 
[V:1] d'2z2z2 | 
[V:2] d2z2z2[K:clef=bass] | 
[V:1] [CE][B,D]!accent![B,4D4] | 
[V:2] F,2!accent!F,4 & [B,,,2B,,2]!accent![B,,,4B,,4] | 
[V:1] [CE][B,D]!accent![B,4D4] | 
[V:2] F,2!accent!F,4 & [B,,,2B,,2]!accent![B,,,4B,,4] | 
[V:1] [CE][B,D]!accent![B,2D2]z2 |]  
[V:2] F,2!accent!F,2z2 & [B,,,2B,,2]!accent![B,,,2B,,2]z2 |]  


